svgs/light/amp-guitar.svg

<svg xmlns="http://www.w3.org/2000/svg" viewBox="0 0 512 512"><!--! Font Awesome Pro 6.3.0 by @fontawesome - https://fontawesome.com License - https://fontawesome.com/license (Commercial License) Copyright 2023 Fonticons, Inc. --><path d="M416 352c8.875 0 16-7.125 16-16S424.9 320 416 320s-16 7.125-16 16S407.1 352 416 352zM352 352c8.875 0 16-7.125 16-16S360.9 320 352 320s-16 7.125-16 16S343.1 352 352 352zM384 400c8.875 0 16-7.125 16-16s-7.125-16-16-16s-16 7.125-16 16S375.1 400 384 400zM288 352c8.875 0 16-7.125 16-16S296.9 320 288 320s-16 7.125-16 16S279.1 352 288 352zM320 400c8.875 0 16-7.125 16-16s-7.125-16-16-16s-16 7.125-16 16S311.1 400 320 400zM160 416c-8.875 0-16 7.125-16 16S151.1 448 160 448s16-7.125 16-16S168.9 416 160 416zM416 416c-8.875 0-16 7.125-16 16S407.1 448 416 448s16-7.125 16-16S424.9 416 416 416zM224 416c-8.875 0-16 7.125-16 16S215.1 448 224 448s16-7.125 16-16S232.9 416 224 416zM256 400c8.875 0 16-7.125 16-16s-7.125-16-16-16S240 375.1 240 384S247.1 400 256 400zM288 416c-8.875 0-16 7.125-16 16S279.1 448 288 448s16-7.125 16-16S296.9 416 288 416zM352 416c-8.875 0-16 7.125-16 16S343.1 448 352 448s16-7.125 16-16S360.9 416 352 416zM224 352c8.875 0 16-7.125 16-16S232.9 320 224 320s-16 7.125-16 16S215.1 352 224 352zM464 64h-77.25C357.9 36.13 310.3 0 256 0S154.1 36.13 125.3 64H48C21.5 64 0 85.5 0 112v352C0 490.5 21.5 512 48 512h416c26.5 0 48-21.5 48-48v-352C512 85.5 490.5 64 464 64zM256 32c30.12 0 58.63 14.88 81.63 32H174.4C197.4 46.88 225.9 32 256 32zM480 464c0 8.875-7.125 16-16 16h-416C39.13 480 32 472.9 32 464V288h448V464zM480 256H32V112C32 103.1 39.13 96 48 96h416C472.9 96 480 103.1 480 112V256zM96 352c8.875 0 16-7.125 16-16S104.9 320 96 320s-16 7.125-16 16S87.13 352 96 352zM96 448c8.875 0 16-7.125 16-16S104.9 416 96 416s-16 7.125-16 16S87.13 448 96 448zM160 352c8.875 0 16-7.125 16-16S168.9 320 160 320s-16 7.125-16 16S151.1 352 160 352zM192 400c8.875 0 16-7.125 16-16S200.9 368 192 368S176 375.1 176 384S183.1 400 192 400zM128 400c8.875 0 16-7.125 16-16S136.9 368 128 368S112 375.1 112 384S119.1 400 128 400zM96 152c-13.25 0-24 10.75-24 24S82.75 200 96 200c13.26 0 24-10.75 24-24S109.3 152 96 152zM192 152c-13.25 0-24 10.75-24 24S178.7 200 192 200c13.26 0 24-10.75 24-24S205.3 152 192 152zM320 152c-13.25 0-24 10.75-24 24S306.7 200 320 200c13.26 0 24-10.75 24-24S333.3 152 320 152zM416 152c-13.25 0-24 10.75-24 24S402.7 200 416 200c13.26 0 24-10.75 24-24S429.3 152 416 152z"/></svg>

<svg xmlns="http://www.w3.org/2000/svg" viewBox="0 0 512 512"><!-- Font Awesome Pro 6.0.0-alpha2 by @fontawesome - https://fontawesome.com License - https://fontawesome.com/license (Commercial License) --><path d="M416 352C424.875 352 432 344.875 432 336S424.875 320 416 320S400 327.125 400 336S407.125 352 416 352ZM352 352C360.875 352 368 344.875 368 336S360.875 320 352 320S336 327.125 336 336S343.125 352 352 352ZM384 400C392.875 400 400 392.875 400 384S392.875 368 384 368S368 375.125 368 384S375.125 400 384 400ZM288 352C296.875 352 304 344.875 304 336S296.875 320 288 320S272 327.125 272 336S279.125 352 288 352ZM320 400C328.875 400 336 392.875 336 384S328.875 368 320 368S304 375.125 304 384S311.125 400 320 400ZM160 416C151.125 416 144 423.125 144 432S151.125 448 160 448S176 440.875 176 432S168.875 416 160 416ZM416 416C407.125 416 400 423.125 400 432S407.125 448 416 448S432 440.875 432 432S424.875 416 416 416ZM224 416C215.125 416 208 423.125 208 432S215.125 448 224 448S240 440.875 240 432S232.875 416 224 416ZM256 400C264.875 400 272 392.875 272 384S264.875 368 256 368S240 375.125 240 384S247.125 400 256 400ZM288 416C279.125 416 272 423.125 272 432S279.125 448 288 448S304 440.875 304 432S296.875 416 288 416ZM352 416C343.125 416 336 423.125 336 432S343.125 448 352 448S368 440.875 368 432S360.875 416 352 416ZM224 352C232.875 352 240 344.875 240 336S232.875 320 224 320S208 327.125 208 336S215.125 352 224 352ZM464 64H386.75C357.875 36.125 310.25 0 256 0S154.125 36.125 125.25 64H48C21.5 64 0 85.5 0 112V464C0 490.5 21.5 512 48 512H464C490.5 512 512 490.5 512 464V112C512 85.5 490.5 64 464 64ZM256 32C286.125 32 314.625 46.875 337.625 64H174.375C197.375 46.875 225.875 32 256 32ZM480 464C480 472.875 472.875 480 464 480H48C39.125 480 32 472.875 32 464V288H480V464ZM480 256H32V112C32 103.125 39.125 96 48 96H464C472.875 96 480 103.125 480 112V256ZM96 352C104.875 352 112 344.875 112 336S104.875 320 96 320S80 327.125 80 336S87.125 352 96 352ZM96 448C104.875 448 112 440.875 112 432S104.875 416 96 416S80 423.125 80 432S87.125 448 96 448ZM160 352C168.875 352 176 344.875 176 336S168.875 320 160 320S144 327.125 144 336S151.125 352 160 352ZM192 400C200.875 400 208 392.875 208 384S200.875 368 192 368S176 375.125 176 384S183.125 400 192 400ZM128 400C136.875 400 144 392.875 144 384S136.875 368 128 368S112 375.125 112 384S119.125 400 128 400ZM96 152C82.746 152 72 162.746 72 176S82.746 200 96 200C109.256 200 120 189.254 120 176S109.256 152 96 152ZM192 152C178.746 152 168 162.746 168 176S178.746 200 192 200C205.256 200 216 189.254 216 176S205.256 152 192 152ZM320 152C306.746 152 296 162.746 296 176S306.746 200 320 200C333.256 200 344 189.254 344 176S333.256 152 320 152ZM416 152C402.746 152 392 162.746 392 176S402.746 200 416 200C429.256 200 440 189.254 440 176S429.256 152 416 152Z"/></svg>
